img/svg/percent.svg

<?xml version="1.0" encoding="utf-8"?><!DOCTYPE svg PUBLIC "-//W3C//DTD SVG 1.1//EN" "http://www.w3.org/Graphics/SVG/1.1/DTD/svg11.dtd"><svg version="1.1" baseProfile="full" xmlns="http://www.w3.org/2000/svg" xmlns:xlink="http://www.w3.org/1999/xlink" xmlns:ev="http://www.w3.org/2001/xml-events"   height="27px"   width="27px" ><path fill="rgb( 255, 102, 0 )" d="M26.298,14.857 C26.298,14.857 25.503,15.652 25.503,15.652 C25.503,15.652 25.987,16.663 25.987,16.663 C26.418,17.566 26.033,18.648 25.1369999999999,19.079 C25.1369999999999,19.079 23.428,19.896 23.428,19.896 C23.428,19.896 23.428,21.788 23.428,21.788 C23.428,22.785 22.6180000000001,23.596 21.621,23.596 C21.621,23.596 20.499,23.596 20.499,23.596 C20.499,23.596 20.126,24.658 20.126,24.658 C19.803,25.573 18.737,26.086 17.819,25.76 C17.819,25.76 16.032,25.132 16.032,25.132 C16.032,25.132 14.6900000000001,26.47 14.6900000000001,26.47 C14.352,26.812 13.899,27 13.414,27 C12.9299999999999,27 12.476,26.812 12.134,26.47 C12.134,26.47 11.34,25.675 11.34,25.675 C11.34,25.675 10.329,26.162 10.329,26.162 C9.45600000000002,26.578 8.33399999999995,26.18 7.91700000000003,25.308 C7.91700000000003,25.308 7.10000000000002,23.597 7.10000000000002,23.597 C7.10000000000002,23.597 5.20699999999999,23.597 5.20699999999999,23.597 C4.21000000000004,23.597 3.39800000000002,22.788 3.39800000000002,21.79 C3.39800000000002,21.79 3.39800000000002,20.666 3.39800000000002,20.666 C3.39800000000002,20.666 2.34100000000001,20.295 2.34100000000001,20.295 C1.88599999999997,20.133 1.51999999999998,19.803 1.31200000000001,19.367 C1.10400000000004,18.93 1.077,18.44 1.23800000000006,17.986 C1.23800000000006,17.986 1.86900000000003,16.199 1.86900000000003,16.199 C1.86900000000003,16.199 0.52999999999997,14.857 0.52999999999997,14.857 C0.19000000000005,14.518 0,14.064 0,13.581 C0,13.094 0.18799999999999,12.64 0.53099999999995,12.298 C0.53099999999995,12.298 1.32399999999996,11.504 1.32399999999996,11.504 C1.32399999999996,11.504 0.84100000000001,10.492 0.84100000000001,10.492 C0.40999999999997,9.59100000000001 0.79200000000003,8.50899999999999 1.68899999999996,8.077 C1.68899999999996,8.077 3.39999999999998,7.261 3.39999999999998,7.261 C3.39999999999998,7.261 3.39999999999998,5.36699999999999 3.39999999999998,5.36699999999999 C3.39999999999998,4.37 4.21199999999999,3.55699999999999 5.20899999999995,3.55699999999999 C5.20899999999995,3.55699999999999 6.33000000000004,3.55699999999999 6.33000000000004,3.55699999999999 C6.33000000000004,3.55699999999999 6.70100000000002,2.49799999999999 6.70100000000002,2.49799999999999 C7.02800000000002,1.58099999999999 8.096,1.066 9.01300000000003,1.398 C9.01300000000003,1.398 10.795,2.02600000000001 10.795,2.02600000000001 C10.795,2.02600000000001 12.136,0.68700000000001 12.136,0.68700000000001 C12.821,0 14.013,0.00299999999999 14.693,0.68799999999999 C14.693,0.68799999999999 15.482,1.47999999999999 15.482,1.47999999999999 C15.482,1.47999999999999 16.497,0.994 16.497,0.994 C17.373,0.57599999999999 18.494,0.976 18.9109999999999,1.84899999999999 C18.9109999999999,1.84899999999999 19.726,3.55699999999999 19.726,3.55699999999999 C19.726,3.55699999999999 21.62,3.55699999999999 21.62,3.55699999999999 C22.614,3.55699999999999 23.428,4.36799999999999 23.428,5.36699999999999 C23.428,5.36699999999999 23.428,6.489 23.428,6.489 C23.428,6.489 24.484,6.86099999999999 24.484,6.86099999999999 C25.425,7.19800000000001 25.919,8.23400000000001 25.586,9.173 C25.586,9.173 24.958,10.958 24.958,10.958 C24.958,10.958 26.298,12.298 26.298,12.298 C27,13.004 27,14.153 26.298,14.857 ZM22.727,11.468 C22.727,11.468 23.72,8.649 23.72,8.649 C23.72,8.649 21.492,7.86199999999999 21.492,7.86199999999999 C21.492,7.86199999999999 21.492,5.49600000000001 21.492,5.49600000000001 C21.492,5.49600000000001 18.508,5.49600000000001 18.508,5.49600000000001 C18.508,5.49600000000001 17.2140000000001,2.78999999999999 17.2140000000001,2.78999999999999 C17.2140000000001,2.78999999999999 15.088,3.81999999999999 15.088,3.81999999999999 C15.088,3.81999999999999 13.414,2.149 13.414,2.149 C13.414,2.149 11.304,4.25999999999999 11.304,4.25999999999999 C11.304,4.25999999999999 8.49000000000001,3.26599999999999 8.49000000000001,3.26599999999999 C8.49000000000001,3.26599999999999 7.702,5.49600000000001 7.702,5.49600000000001 C7.702,5.49600000000001 5.33799999999997,5.49600000000001 5.33799999999997,5.49600000000001 C5.33799999999997,5.49600000000001 5.33799999999997,8.482 5.33799999999997,8.482 C5.33799999999997,8.482 2.64499999999998,9.77000000000001 2.64499999999998,9.77000000000001 C2.64499999999998,9.77000000000001 3.66499999999996,11.903 3.66499999999996,11.903 C3.66499999999996,11.903 1.99300000000005,13.576 1.99300000000005,13.576 C1.99300000000005,13.576 4.10299999999995,15.69 4.10299999999995,15.69 C4.10299999999995,15.69 3.11000000000001,18.504 3.11000000000001,18.504 C3.11000000000001,18.504 5.33799999999997,19.293 5.33799999999997,19.293 C5.33799999999997,19.293 5.33799999999997,21.657 5.33799999999997,21.657 C5.33799999999997,21.657 8.322,21.657 8.322,21.657 C8.322,21.657 9.61400000000003,24.363 9.61400000000003,24.363 C9.61400000000003,24.363 11.74,23.334 11.74,23.334 C11.74,23.334 13.414,25.006 13.414,25.006 C13.414,25.006 15.525,22.898 15.525,22.898 C15.525,22.898 18.338,23.89 18.338,23.89 C18.338,23.89 19.127,21.659 19.127,21.659 C19.127,21.659 21.489,21.659 21.489,21.659 C21.489,21.659 21.489,18.672 21.489,18.672 C21.489,18.672 24.182,17.384 24.182,17.384 C24.182,17.384 23.163,15.251 23.163,15.251 C23.163,15.251 24.838,13.579 24.838,13.579 C24.838,13.579 22.727,11.468 22.727,11.468 ZM17.367,18.706 C15.754,18.706 14.472,17.492 14.456,15.485 C14.456,13.577 15.623,12.13 17.447,12.13 C19.285,12.13 20.323,13.48 20.323,15.304 C20.323,17.541 18.91,18.706 17.367,18.706 ZM17.414,13.495 C16.658,13.495 16.329,14.35 16.329,15.421 C16.313,16.536 16.691,17.344 17.414,17.344 C18.12,17.344 18.465,16.62 18.465,15.421 C18.465,14.333 18.186,13.495 17.414,13.495 ZM9.80700000000002,18.74 C9.80700000000002,18.74 15.9349999999999,7.69200000000001 15.9349999999999,7.69200000000001 C15.9349999999999,7.69200000000001 17.282,7.69200000000001 17.282,7.69200000000001 C17.282,7.69200000000001 11.135,18.74 11.135,18.74 C11.135,18.74 9.80700000000002,18.74 9.80700000000002,18.74 ZM9.67700000000002,14.269 C8.04999999999995,14.269 6.76800000000003,13.052 6.76800000000003,11.046 C6.76800000000003,9.13900000000001 7.93499999999995,7.69200000000001 9.75699999999995,7.69200000000001 C11.598,7.69200000000001 12.634,9.03899999999999 12.634,10.864 C12.634,13.101 11.22,14.269 9.67700000000002,14.269 ZM9.70899999999995,9.05600000000001 C8.96900000000005,9.05600000000001 8.62400000000002,9.91 8.62400000000002,10.98 C8.62400000000002,12.099 9,12.903 9.72400000000005,12.903 C10.431,12.903 10.776,12.179 10.778,10.98 C10.778,9.89400000000001 10.481,9.05600000000001 9.70899999999995,9.05600000000001 Z "/></svg>

<svg baseProfile="full" xmlns="http://www.w3.org/2000/svg" height="27" width="27"><path fill="rgb( 255, 102, 0 )" d="M26.298 14.857l-.795.795.484 1.011c.431.903.046 1.985-.85 2.416l-1.709.817v1.892c0 .997-.81 1.808-1.807 1.808h-1.122l-.373 1.062c-.323.915-1.389 1.428-2.307 1.102l-1.787-.628-1.342 1.338c-.338.342-.791.53-1.276.53-.484 0-.938-.188-1.28-.53l-.794-.795-1.011.487c-.873.416-1.995.018-2.412-.854l-.817-1.711h-1.893c-.997 0-1.809-.809-1.809-1.807v-1.124l-1.057-.371c-.455-.162-.821-.492-1.029-.928-.208-.437-.235-.927-.074-1.381l.631-1.787-1.339-1.342c-.34-.339-.53-.793-.53-1.276 0-.487.188-.941.531-1.283l.793-.794-.483-1.012c-.431-.901-.049-1.983.848-2.415l1.711-.816v-1.894c0-.997.812-1.81 1.809-1.81h1.121l.371-1.059c.327-.917 1.395-1.432 2.312-1.1l1.782.628 1.341-1.339c.685-.687 1.877-.684 2.557.001l.789.792 1.015-.486c.876-.418 1.997-.018 2.414.855l.815 1.708h1.894c.994 0 1.808.811 1.808 1.81v1.122l1.056.372c.941.337 1.435 1.373 1.102 2.312l-.628 1.785 1.34 1.34c.702.706.702 1.855 0 2.559zm-3.571-3.389l.993-2.819-2.228-.787v-2.366h-2.984l-1.294-2.706-2.126 1.03-1.674-1.671-2.11 2.111-2.814-.994-.788 2.23h-2.364v2.986l-2.693 1.288 1.02 2.133-1.672 1.673 2.11 2.114-.993 2.814 2.228.789v2.364h2.984l1.292 2.706 2.126-1.029 1.674 1.672 2.111-2.108 2.813.992.789-2.231h2.362v-2.987l2.693-1.288-1.019-2.133 1.675-1.672-2.111-2.111zm-5.36 7.238c-1.613 0-2.895-1.214-2.911-3.221 0-1.908 1.167-3.355 2.991-3.355 1.838 0 2.876 1.35 2.876 3.174 0 2.237-1.413 3.402-2.956 3.402zm.047-5.211c-.756 0-1.085.855-1.085 1.926-.016 1.115.362 1.923 1.085 1.923.706 0 1.051-.724 1.051-1.923 0-1.088-.279-1.926-1.051-1.926zm-7.607 5.245l6.128-11.048h1.347l-6.147 11.048h-1.328zm-.13-4.471c-1.627 0-2.909-1.217-2.909-3.223 0-1.907 1.167-3.354 2.989-3.354 1.841 0 2.877 1.347 2.877 3.172 0 2.237-1.414 3.405-2.957 3.405zm.032-5.213c-.74 0-1.085.854-1.085 1.924 0 1.119.376 1.923 1.1 1.923.707 0 1.052-.724 1.054-1.923 0-1.086-.297-1.924-1.069-1.924z"/></svg>
